X:1
T: The Auld Man (Elgin)
C:
R:Strathspey
Q: 128
K:F
M:4/4
L:1/16
|:B2|ABc2 f3c d3f c4|ABc2 f3A G3F EG3|ABc2 f3c d3f c3f|B3f A3f G4 F2B2|
ABc2 f3c d3f c4|ABc2 f3A G3F EG3|ABc2 f3c d3f c3f|B3f A3f G4 F2B2|
A3F C3F A,3F C3F|A3F C3F E3G c3B|A3F C3F A,3F C3F|B3c A3c G3c E3c|
A3F C3F A,3F C3F|A3F C3F E3G c3B|ABc2 f3c d3b c3a|B3g A3f G4 F2:|
